src/images/pages/set_currency/usd_icon.svg

<?xml version="1.0" encoding="UTF-8"?>
<svg width="20px" height="20px" viewBox="0 0 20 20" version="1.1" xmlns="http://www.w3.org/2000/svg" xmlns:xlink="http://www.w3.org/1999/xlink">
    <!-- Generator: Sketch 47 (45396) - http://www.bohemiancoding.com/sketch -->
    <title>USD</title>
    <desc>Created with Sketch.</desc>
    <defs></defs>
    <g id="Landing-Page" stroke="none" stroke-width="1" fill="none" fill-rule="evenodd">
        <g transform="translate(-420.000000, -478.000000)" id="Real-account">
            <g transform="translate(330.000000, 432.000000)">
                <g id="Currency" transform="translate(90.000000, 46.000000)">
                    <g id="USD">
                        <path d="M13.4220004,0.60255938 C8.2456411,-1.27826266 2.48227195,1.38957002 0.601172301,6.57850459 C-1.27992735,11.7674392 1.40164024,17.5166186 6.57799957,19.3974406 C11.7543589,21.2782627 17.517728,18.61043 19.3988277,13.4214954 C21.2799274,8.23256085 18.5983598,2.48338142 13.4220004,0.60255938 Z" id="Shape" fill="#D02F44" fill-rule="nonzero"></path>
                        <path d="M12.0064447,11.87806 C12.0064447,11.549621 11.8909786,11.2729509 11.660043,11.0480416 C11.4291073,10.8231323 11.039745,10.619646 10.4919441,10.4375765 C9.7293195,10.2055272 9.17347113,9.90297514 8.82438238,9.52991126 C8.47529364,9.15684738 8.30075188,8.68293841 8.30075188,8.10817013 C8.30075188,7.52269189 8.47171329,7.04253553 8.81364125,6.66768666 C9.1555692,6.29283778 9.62548931,6.0697168 10.2234157,5.99831701 L10.2234157,5 L11.0236305,5 L11.0236305,6.00367197 C11.6251373,6.08578172 12.0932672,6.33746219 12.4280344,6.75872093 C12.7628015,7.17997967 12.9301826,7.75652429 12.9301826,8.48837209 L11.9419979,8.48837209 C11.9419979,7.9850036 11.8220563,7.5851708 11.5821697,7.28886169 C11.3422831,6.99255258 11.018262,6.84440024 10.6100967,6.84440024 C10.1840294,6.84440024 9.8582181,6.95417577 9.63265306,7.17373011 C9.40708802,7.39328445 9.2943072,7.69940644 9.2943072,8.09210526 C9.2943072,8.45624417 9.41335363,8.74630145 9.65145005,8.9622858 C9.88954648,9.17827015 10.2815941,9.37461662 10.8276047,9.55133109 C11.3736153,9.72804556 11.7996762,9.92260706 12.1058002,10.1350214 C12.4119242,10.3474358 12.6374858,10.5946538 12.7824919,10.876683 C12.927498,11.1587121 13,11.4889312 13,11.8673501 C13,12.4706783 12.8182976,12.9561895 12.4548872,13.3238984 C12.0914769,13.6916073 11.582173,13.9093734 10.9269603,13.9772032 L10.9269603,15 L10.132116,15 L10.132116,13.9772032 C9.46616208,13.9165134 8.94432699,13.6800051 8.56659506,13.2676714 C8.18886313,12.8553376 8,12.2957502 8,11.5888923 L8.99355532,11.5888923 C8.99355532,12.0851208 9.12423786,12.4671039 9.38560687,12.7348531 C9.64697589,13.0026023 10.0175415,13.1364749 10.4973147,13.1364749 C10.9663468,13.1364749 11.3351222,13.0240219 11.603652,12.7991126 C11.8721818,12.5742033 12.0064447,12.2671888 12.0064447,11.87806 Z" stroke="#FFFFFF" stroke-width="0.5" fill="#FFFFFF"></path>
                    </g>
                </g>
            </g>
        </g>
    </g>
</svg>

<svg width="20" height="20" viewBox="0 0 20 20" xmlns="http://www.w3.org/2000/svg"><title>USD</title><g fill="none" fill-rule="evenodd"><path d="M13.422.603C8.246-1.278 2.482 1.39.602 6.579c-1.882 5.188.8 10.938 5.976 12.818 5.176 1.881 10.94-.787 12.82-5.976 1.882-5.188-.8-10.938-5.976-12.818z" fill="#D02F44" fill-rule="nonzero"/><path d="M12.006 11.878c0-.328-.115-.605-.346-.83-.23-.225-.62-.428-1.168-.61-.763-.232-1.319-.535-1.668-.908s-.523-.847-.523-1.422c0-.585.17-1.065.513-1.44.342-.375.811-.598 1.41-.67V5h.8v1.004c.601.082 1.07.333 1.404.755.335.421.502.998.502 1.73h-.988c0-.504-.12-.904-.36-1.2-.24-.296-.564-.445-.972-.445-.426 0-.752.11-.977.33-.226.22-.339.525-.339.918 0 .364.12.654.357.87.239.216.63.413 1.177.59.546.176.972.37 1.278.583.306.212.531.46.676.742.145.282.218.612.218.99 0 .604-.182 1.09-.545 1.457-.364.368-.873.585-1.528.653V15h-.795v-1.023c-.666-.06-1.188-.297-1.565-.71C8.189 12.856 8 12.297 8 11.59h.994c0 .496.13.878.392 1.146.261.268.632.401 1.111.401.47 0 .838-.112 1.107-.337.268-.225.402-.532.402-.92z" stroke="#FFF" stroke-width=".5" fill="#FFF"/></g></svg>
